X:1     %Music
T:Rides d'octobre 2003      %Tune name
C:Traditionnel breton et J. HUBY (NEKETA)     %Tune composer
I:Rides 6 T     %Tune infos
Q:1/4=164     %Tempo
V:1     %
     %!STAVE 0 'Melody' @
     %!INSTR 'Piano' 0 0 @
|:
M:3/4     %Meter
L:1/8     %
K:C
GA B2 cB |Ac BA GD |GA B2 cB |A/B/c BA G2 ::
Bc d2 ed |B2 cB Ac |Bc d2 ed |c/d/c BA G2 ::
EG A2 cd |c/d/e dc BG |EG A2 cd |(3:2:1c(3:2:1d(3:2:1e dc B2 ::
Bc d2 BG |E2 AB ce |dc B2 cd |c2 BA G2 ::
DC DE (3:2:1F(3:2:1G(3:2:1F |EF GF E2 |DC DE (3:2:1F(3:2:1G(3:2:1F |EF GF E2 ::
F2 D2 CD |EG FE DE |F2 (3:2:1D(3:2:1D(3:2:1D CD |EG FE D2 ::
AG AB c2 |Bc dc B2 |AG AB c2 |Bc dc B2 ::
c2 A2 GA |Bd cB AB |c2 A2 GA |Bd cB A2 |]
V:2     %
     %!STAVE 0 'Chords 1' @
     %!INSTR 'Guitar' 3 2600 @
|:
M:3/4     %Meter
L:1/8     %
K:C
G2 B,2 C,2 |E2 A2 F,2 |G,2 D2 C2 |C2 A,2 E2 ::
B2 D2 E,2 |G,2 C2 C2 |B,2 F2 E2 |D2 B,2 E2 ::
A2 C2 D,2 |G,2 C2 E,2 |A,2 E2 D2 |E,2 C,2 G,2 ::
B2 D2 G,2 |E2 A2 E,2 |B,2 F2 B2 |E,2 C,2 E2 ::
C2 E,2 C,2 |B,2 E2 G,2 |C,2 G,2 C2 |G,2 E,2 B,2 ::
D2 F,2 D,2 |B,2 E2 G,2 |D,2 A,2 D2 |G,2 E,2 B,2 ::
A2 C2 C,2 |F2 B2 E,2 |A,2 E2 C2 |D2 B,2 G,2 ::
A2 C2 A,2 |F2 B2 D2 |A,2 E2 A2 |D2 B,2 F2 |]
V:3     %
     %!STAVE 0 'Main Bass' @
     %!INSTR 'Bass' 1 3200 @
|:
M:3/4     %Meter
L:1/8     %
K:C
G,2 z2 C,2 |z2 A,2 z2 |G,2 z2 C,2 |z2 A,2 z2 ::
B,2 z2 E,2 |z2 C,2 z2 |B,2 z2 E,2 |z2 B,2 z2 ::
A,2 z2 D,2 |z2 C,2 z2 |A,2 z2 D,2 |z2 C,2 z2 ::
B,2 z2 G,2 |z2 A,2 z2 |B,2 z2 B,2 |z2 C,2 z2 ::
C,2 z2 C,2 |z2 E,2 z2 |C,2 z2 C,2 |z2 E,2 z2 ::
D,2 z2 D,2 |z2 E,2 z2 |D,2 z2 D,2 |z2 E,2 z2 ::
A,2 z2 C,2 |z2 B,2 z2 |A,2 z2 C,2 |z2 B,2 z2 ::
A,2 z2 A,2 |z2 B,2 z2 |A,2 z2 A,2 |z2 B,2 |]
V:4     %
     %!STAVE 0 'Guitar' @
     %!INSTR 'Guitar' 3 2600 @
|:
M:3/4     %Meter
L:1/8     %
K:C
z2 [B2G2D2] z2 |[A2E2C2] z2 [F2D2A,2] |z2 [G2D2B,2] z2 |[c2A2E2] z2 [A2E2C2] ::
z2 [d2B2F2] z2 |[C2G,2E,2] z2 [c2A2E2] |z2 [B2F2D2] z2 |[d2B2F2] z2 [A2E2C2] ::
z2 [c2A2E2] z2 |[C2G,2E,2] z2 [E2C2G,2] |z2 [A2E2C2] z2 |[E2C2G,2] z2 [C2G,2E,2] ::
z2 [d2B2F2] z2 |[A2E2C2] z2 [E2C2G,2] |z2 [B2F2D2] z2 |[E2C2G,2] z2 [A2E2C2] ::
z2 [E2C2G,2] z2 |[E2B,2G,2] z2 [G2E2B,2] |z2 [C2G,2E,2] z2 |[G2E2B,2] z2 [E2B,2G,2] ::
z2 [F2D2A,2] z2 |[E2B,2G,2] z2 [G2E2B,2] |z2 [D2A,2F,2] z2 |[G2E2B,2] z2 [E2B,2G,2] ::
z2 [c2A2E2] z2 |[B2F2D2] z2 [E2C2G,2] |z2 [A2E2C2] z2 |[d2B2F2] z2 [C2G,2E,2] ::
z2 [c2A2E2] z2 |[B2F2D2] z2 [d2B2F2] |z2 [A2E2C2] z2 |[d2B2F2] z2 [B2F2D2] |]
     %End of file
